remix/System/history-line.svg

<svg viewBox="0 0 24 24" fill="currentColor" xmlns="http://www.w3.org/2000/svg"><path d="M12 2C17.5228 2 22 6.47715 22 12C22 17.5228 17.5228 22 12 22C6.47715 22 2 17.5228 2 12H4C4 16.4183 7.58172 20 12 20C16.4183 20 20 16.4183 20 12C20 7.58172 16.4183 4 12 4C9.25022 4 6.82447 5.38734 5.38451 7.50024L8 7.5V9.5H2V3.5H4L3.99989 5.99918C5.82434 3.57075 8.72873 2 12 2ZM13 7L12.9998 11.585L16.2426 14.8284L14.8284 16.2426L10.9998 12.413L11 7H13Z"/></svg>

<svg viewBox="0 0 24 24" xmlns="http://www.w3.org/2000/svg"><path fill="none" d="M0 0h24v24H0Z"/><path d="M12 2c5.523 0 10 4.477 10 10s-4.477 10-10 10C6.477 22 2 17.523 2 12h2c0 4.41 3.582 8 8 8 4.41 0 8-3.59 8-8 0-4.42-3.59-8-8-8C9.25 4 6.82 5.38 5.385 7.5H8v2H2v-6h2V6c1.82-2.43 4.72-4 8-4Zm1 5v4.58l3.24 3.24 -1.42 1.41 -3.83-3.83V6.987h2Z"/></svg>
